src/topics/icons/uikit.svg

<svg height="297" preserveAspectRatio="xMidYMid" viewBox="0 0 256 297" width="256" xmlns="http://www.w3.org/2000/svg"><path d="m174.656 28.4373333-48.938667-28.4373333-51.0719997 31.7226667 49.6213337 27.4133333zm23.402667 12.2453334-50.538667 30.7413333 57.28 33.109333v87.466667l-77.248 43.904-76.352-43.904v-68.266667l-51.2-25.429333v123.562667l125.717333 74.666666 130.282667-74.112v-148.2666663z" fill="#2c92be"/></svg>

<?xml version="1.0" encoding="UTF-8" standalone="no"?>
<svg width="256px" height="297px" viewBox="0 0 256 297" version="1.1" xmlns="http://www.w3.org/2000/svg" xmlns:xlink="http://www.w3.org/1999/xlink" preserveAspectRatio="xMidYMid">
    <g>
        <path d="M174.656,28.4373333 L125.717333,0 L74.6453333,31.7226667 L124.266667,59.136 L174.656,28.4373333 L174.656,28.4373333 Z M198.058667,40.6826667 L147.52,71.424 L204.8,104.533333 L204.8,192 L127.552,235.904 L51.2,192 L51.2,123.733333 L0,98.304 L0,221.866667 L125.717333,296.533333 L256,222.421333 L256,74.1546667 L198.058667,40.6826667 L198.058667,40.6826667 Z" fill="#2C92BE"></path>
    </g>
</svg>
